src/images/svg/symbols/markets-stocks-and-indices/american-stocks/stocks-bayer-ag.svg

<svg width="32" height="32" viewBox="0 0 32 32" fill="none" xmlns="http://www.w3.org/2000/svg">
<path d="M0 16C0 7.16344 7.16344 0 16 0C24.8366 0 32 7.16344 32 16C32 24.8366 24.8366 32 16 32C7.16344 32 0 24.8366 0 16Z" fill="#0D3650"/>
<path d="M27.9675 15.2444C27.7776 12.1994 26.4341 9.34125 24.2106 7.25212C21.9872 5.16299 19.0509 4 16 4C12.9491 4 10.0129 5.16299 7.78939 7.25212C5.56593 9.34125 4.22244 12.1994 4.03254 15.2444C4.03787 15.4982 4.05891 15.7514 4.09554 16.0026C4.33952 18.0409 5.11255 19.98 6.33784 21.6271C7.4492 23.1458 8.90371 24.3804 10.5828 25.2303C12.2619 26.0801 14.1181 26.5212 16 26.5174C13.3434 26.5159 10.7858 25.509 8.84114 23.6991C6.89645 21.8892 5.70875 19.4104 5.51667 16.7608C5.49045 16.5089 5.47994 16.2557 5.48517 16.0026C5.47994 15.7494 5.49045 15.4962 5.51667 15.2444C5.70875 12.5948 6.89645 10.116 8.84114 8.30608C10.7858 6.4962 13.3434 5.48932 16 5.48775C17.8822 5.48444 19.7386 5.92605 21.4177 6.77656C23.0969 7.62707 24.5512 8.86241 25.6622 10.3818C26.8869 12.0279 27.6599 13.9655 27.9045 16.0026C27.9397 16.2431 27.9607 16.4855 27.9675 16.7285C27.9675 16.6026 27.9753 16.4765 27.9832 16.3504C27.9911 16.224 27.999 16.0975 27.999 15.9711C28.0035 15.7284 27.993 15.4857 27.9675 15.2444Z" fill="white"/>
<path fill-rule="evenodd" clip-rule="evenodd" d="M17.5156 7.88756C17.6137 7.98164 17.6921 8.09426 17.7463 8.21887C17.8005 8.34348 17.8294 8.47762 17.8314 8.61349C17.8337 8.74668 17.8093 8.87898 17.7596 9.00259C17.71 9.12619 17.636 9.2386 17.5422 9.33318C17.4484 9.42775 17.3366 9.50258 17.2134 9.55324C17.0902 9.6039 16.9581 9.62938 16.8249 9.62815H14.5159V6.30894H16.7897C17.0475 6.31129 17.2941 6.41476 17.4765 6.59708C17.6588 6.77941 17.7623 7.02602 17.7646 7.28386C17.7349 7.50315 17.6492 7.71108 17.5156 7.88756ZM15.2741 7.57183H16.663C16.7383 7.57183 16.8106 7.54189 16.8639 7.48859C16.9172 7.43528 16.9472 7.36299 16.9472 7.28761C16.9472 7.21223 16.9172 7.13993 16.8639 7.08663C16.8106 7.03333 16.7383 7.00338 16.663 7.00338H15.2741V7.57183ZM15.2741 8.89772H16.6945C16.7782 8.89772 16.8585 8.86445 16.9177 8.80524C16.9769 8.74604 17.0102 8.66573 17.0102 8.582C17.0102 8.49826 16.9769 8.41796 16.9177 8.35875C16.8585 8.29954 16.7782 8.26627 16.6945 8.26627H15.2741V8.89772Z" fill="white"/>
<path fill-rule="evenodd" clip-rule="evenodd" d="M18.0526 13.5713H17.1999L16.9472 13.0029H15.0843L14.8316 13.5713H13.9789L15.625 10.2559H16.3825L18.0526 13.5713ZM16 11.1085L15.4316 12.3084H16.5685L16 11.1085Z" fill="white"/>
<path d="M17.1369 14.2972H18.0841L16.4102 16.4443V17.6127H15.625V16.4443L13.9512 14.2972H14.8984L16.0353 15.8129L17.1369 14.2972Z" fill="white"/>
<path d="M21.5255 14.2972V15.0277H19.3155V15.5961H21.4625V16.3221H19.3155V16.9535H21.5255V17.6802H18.5258V14.2972H21.5255Z" fill="white"/>
<path fill-rule="evenodd" clip-rule="evenodd" d="M23.9576 16.3498H23.3576V17.6127H22.5679V14.2972H24.5928C24.8379 14.3029 25.0731 14.3955 25.2563 14.5585C25.4395 14.7215 25.5588 14.9443 25.5929 15.1871C25.6271 15.4299 25.5739 15.677 25.4427 15.8842C25.3116 16.0914 25.1111 16.2453 24.877 16.3183L25.8519 17.6127H24.9047L23.9576 16.3498ZM24.5253 14.9924H23.3891V15.6276H24.5253C24.6089 15.6274 24.6891 15.5941 24.7483 15.5349C24.8075 15.4758 24.8408 15.3956 24.841 15.3119C24.8364 15.2293 24.8018 15.1512 24.7436 15.0924C24.6855 15.0335 24.6078 14.998 24.5253 14.9924Z" fill="white"/>
<path fill-rule="evenodd" clip-rule="evenodd" d="M14.2947 17.6127H13.442L13.19 17.0443H11.3264L11.0744 17.6127H10.2255L11.8986 14.2972H12.6568L14.2947 17.6127ZM12.2421 15.1499L11.6744 16.3498H12.842L12.2421 15.1499Z" fill="white"/>
<path fill-rule="evenodd" clip-rule="evenodd" d="M9.46733 15.8766C9.56545 15.9706 9.64389 16.0833 9.69809 16.2079C9.75229 16.3325 9.78117 16.4667 9.78305 16.6025C9.78487 16.7357 9.75998 16.8679 9.70986 16.9913C9.65974 17.1146 9.5854 17.2267 9.49123 17.3209C9.39706 17.4151 9.28498 17.4894 9.1616 17.5395C9.03822 17.5896 8.90605 17.6145 8.77289 17.6127H6.43235V14.2972H8.70615C8.9647 14.2998 9.21187 14.404 9.39428 14.5872C9.57669 14.7705 9.6797 15.0181 9.68106 15.2767C9.67628 15.4951 9.59987 15.7059 9.46358 15.8766H9.46733ZM7.22578 15.5609H8.61091C8.68629 15.5609 8.75858 15.5309 8.81188 15.4776C8.86519 15.4243 8.89513 15.352 8.89513 15.2767C8.89513 15.2013 8.86519 15.129 8.81188 15.0757C8.75858 15.0224 8.68629 14.9924 8.61091 14.9924H7.22578V15.5609ZM7.22578 16.8868H8.6424C8.72614 16.8868 8.80644 16.8535 8.86565 16.7943C8.92486 16.7351 8.95813 16.6548 8.95813 16.5711C8.95813 16.4873 8.92486 16.407 8.86565 16.3478C8.80644 16.2886 8.72614 16.2553 8.6424 16.2553H7.22578V16.8868Z" fill="white"/>
<path d="M17.5194 18.3079V19.0338H15.3056V19.6023H17.4526V20.3282H15.3056V20.9604H17.5156V21.6864H14.5159V18.3117L17.5194 18.3079Z" fill="white"/>
<path fill-rule="evenodd" clip-rule="evenodd" d="M14.4881 25.76V22.4438H16.6982C16.8331 22.4456 16.9663 22.4741 17.0901 22.5275C17.214 22.581 17.3261 22.6583 17.42 22.7552C17.5139 22.852 17.5878 22.9664 17.6374 23.0919C17.687 23.2173 17.7114 23.3513 17.7091 23.4862C17.7124 23.6895 17.6538 23.889 17.541 24.0582C17.4282 24.2274 17.2666 24.3582 17.0777 24.4334L18.0878 25.76H17.1369L16.1897 24.4964H15.2741V25.76H14.4881ZM16.9509 23.4547C16.9532 23.4126 16.9466 23.3706 16.9315 23.3312C16.9165 23.2919 16.8933 23.2562 16.8635 23.2264C16.8337 23.1966 16.798 23.1734 16.7587 23.1584C16.7193 23.1433 16.6773 23.1367 16.6352 23.139H15.2778V23.7704H16.6352C16.677 23.7722 16.7186 23.7651 16.7575 23.7498C16.7964 23.7345 16.8316 23.7113 16.861 23.6816C16.8904 23.6518 16.9132 23.6163 16.9281 23.5772C16.9429 23.5382 16.9494 23.4964 16.9472 23.4547H16.9509Z" fill="white"/>
<path d="M7.78938 24.7531C5.56592 22.6639 4.22243 19.8058 4.03253 16.7608C4.00699 16.5194 3.99647 16.2767 4.00104 16.0341C4.00104 15.9076 4.00892 15.7812 4.0168 15.6548C4.02467 15.5286 4.03253 15.4026 4.03253 15.2767C4.03925 15.5197 4.0603 15.7621 4.09554 16.0026C4.33952 18.0409 5.11255 19.98 6.33784 21.6271C7.4492 23.1458 8.90371 24.3804 10.5828 25.2303C12.2619 26.0801 14.1181 26.5212 16 26.5174C18.6582 26.5213 21.2188 25.5163 23.1647 23.7053C25.1105 21.8944 26.2966 19.4124 26.4833 16.7608C26.5095 16.5089 26.5201 16.2557 26.5148 16.0026C26.5201 15.7495 26.5095 15.4962 26.4833 15.2444C26.2913 12.5948 25.1035 10.116 23.1589 8.3061C21.2142 6.49621 18.6566 5.48932 16 5.48775C17.8822 5.48444 19.7386 5.92605 21.4177 6.77656C23.0969 7.62707 24.5512 8.86241 25.6622 10.3818C26.8869 12.0279 27.6599 13.9655 27.9045 16.0026C27.9411 16.2538 27.9621 16.507 27.9675 16.7608C27.7776 19.8058 26.4341 22.6639 24.2106 24.7531C21.9871 26.8422 19.0509 28.0052 16 28.0052C12.9491 28.0052 10.0128 26.8422 7.78938 24.7531Z" fill="white"/>
</svg>

<svg width="32" height="32" fill="none" xmlns="http://www.w3.org/2000/svg"><path d="M0 16C0 7.163 7.163 0 16 0s16 7.163 16 16-7.163 16-16 16S0 24.837 0 16Z" fill="#0D3650"/><path d="M27.968 15.244a11.99 11.99 0 0 0-23.935 0c.005.254.026.507.063.759a11.766 11.766 0 0 0 2.242 5.624A11.944 11.944 0 0 0 16 26.517a10.517 10.517 0 0 1-10.483-9.756 6.105 6.105 0 0 1-.032-.758 6.103 6.103 0 0 1 .032-.759A10.517 10.517 0 0 1 16 5.488a11.943 11.943 0 0 1 9.662 4.894 11.766 11.766 0 0 1 2.242 5.62c.036.241.057.483.064.727 0-.126.007-.252.015-.379.008-.126.016-.253.016-.379a5.878 5.878 0 0 0-.031-.727Z" fill="#fff"/><path fill-rule="evenodd" clip-rule="evenodd" d="M17.516 7.888a1.026 1.026 0 0 1 .244 1.115.997.997 0 0 1-.935.625h-2.31v-3.32h2.275a.984.984 0 0 1 .975.976c-.03.22-.116.427-.25.604Zm-2.242-.316h1.389a.284.284 0 0 0 0-.569h-1.389v.569Zm0 1.326h1.42a.316.316 0 0 0 0-.632h-1.42v.632ZM18.053 13.571H17.2l-.253-.568h-1.863l-.252.568h-.853l1.646-3.315h.758l1.67 3.315ZM16 11.108l-.568 1.2h1.136l-.568-1.2Z" fill="#fff"/><path d="M17.137 14.297h.947l-1.674 2.147v1.169h-.785v-1.169l-1.674-2.147h.947l1.137 1.516 1.102-1.516ZM21.526 14.297v.73h-2.21v.57h2.146v.725h-2.146v.631h2.21v.727h-3v-3.383h3Z" fill="#fff"/><path fill-rule="evenodd" clip-rule="evenodd" d="M23.958 16.35h-.6v1.263h-.79v-3.316h2.025a1.034 1.034 0 0 1 .284 2.021l.975 1.295h-.947l-.947-1.263Zm.567-1.358H23.39v.636h1.136a.316.316 0 0 0 .316-.316.339.339 0 0 0-.316-.32ZM14.295 17.613h-.853l-.252-.569h-1.864l-.252.569h-.848l1.673-3.316h.758l1.638 3.316Zm-2.053-2.463-.568 1.2h1.168l-.6-1.2ZM9.467 15.877a1.025 1.025 0 0 1 .243 1.114.998.998 0 0 1-.937.622h-2.34v-3.316h2.273a.985.985 0 0 1 .975.98.996.996 0 0 1-.217.6h.003Zm-2.241-.316H8.61a.284.284 0 0 0 0-.569H7.226v.569Zm0 1.326h1.416a.316.316 0 0 0 0-.632H7.226v.632Z" fill="#fff"/><path d="M17.52 18.308v.726h-2.214v.568h2.147v.726h-2.147v.632h2.21v.726h-3v-3.374l3.003-.004Z" fill="#fff"/><path fill-rule="evenodd" clip-rule="evenodd" d="M14.488 25.76v-3.316h2.21a1.024 1.024 0 0 1 1.011 1.042 1.002 1.002 0 0 1-.631.947l1.01 1.327h-.951l-.947-1.264h-.916v1.264h-.786Zm2.463-2.305a.3.3 0 0 0-.316-.316h-1.357v.631h1.357a.299.299 0 0 0 .312-.315h.004Z" fill="#fff"/><path d="M7.79 24.753a11.991 11.991 0 0 1-3.757-7.992A5.858 5.858 0 0 1 4 16.034c0-.126.008-.253.016-.38.008-.125.016-.251.016-.377.006.243.027.485.063.726a11.766 11.766 0 0 0 2.242 5.624A11.944 11.944 0 0 0 16 26.517a10.494 10.494 0 0 0 10.483-9.756c.026-.252.037-.505.032-.758a6.094 6.094 0 0 0-.032-.759A10.517 10.517 0 0 0 16 5.488a11.943 11.943 0 0 1 9.662 4.894 11.766 11.766 0 0 1 2.242 5.62c.037.252.058.505.064.759a11.99 11.99 0 0 1-20.179 7.992Z" fill="#fff"/></svg>
